dist/img/advantages/a1.svg

<svg width="55" height="55" viewBox="0 0 55 55" fill="none" xmlns="http://www.w3.org/2000/svg">
<path d="M4.96289 17.3057C5.41406 17.3057 5.76855 16.9404 5.76855 16.5V14.8242C5.76855 7.54101 11.709 1.61133 19.0137 1.61133C26.3183 1.61133 32.2588 7.54101 32.2588 14.8242V16.4893C32.2588 16.9297 32.624 17.2949 33.0644 17.2949C33.5049 17.2949 33.8701 16.9297 33.8701 16.4893V14.8242C33.8701 6.64941 27.2099 0 19.0137 0C10.8174 0 4.15723 6.64941 4.15723 14.8242V16.4893C4.15723 16.9404 4.51172 17.3057 4.96289 17.3057Z" fill="#00817C"/>
<path d="M47.749 36.0723V33.4727C48.3935 33.2041 48.8555 32.5596 48.8555 31.8184V29.5732C48.8555 28.585 48.0498 27.7793 47.0615 27.7793H40.0039C39.0156 27.7793 38.21 28.585 38.21 29.5732V31.8184C38.21 32.5596 38.6611 33.2041 39.3164 33.4727V36.0723C38.1025 36.6416 37.0391 37.4365 36.1689 38.3818C35.8252 35.7285 34.9121 33.3975 33.5264 31.6787C34.1172 31.4639 34.6758 31.1201 35.1484 30.6689C36.0185 29.8525 36.5234 28.7783 36.5234 27.7256C36.5234 25.9746 35.4707 24.4277 33.8916 23.7617V20.2061C33.8916 19.7656 33.5264 19.4004 33.0859 19.4004C32.6455 19.4004 32.2803 19.7656 32.2803 20.2061V24.3311C32.2803 24.6963 32.5273 25.0186 32.8818 25.1152C34.0742 25.4268 34.9121 26.4902 34.9121 27.7148C34.9121 28.8643 33.7412 30.1855 32.1943 30.3252C30.7441 29.2402 28.0371 28.4131 26.4687 28.166L24.5566 27.8652V25.7168C27.2422 23.8047 29.0146 20.5391 29.0146 16.8438C29.0146 16.0166 28.9287 15.2002 28.7568 14.416C28.6816 14.0615 28.3809 13.8145 28.0264 13.7822C24.1914 13.5029 20.0019 11.333 19.8408 7.21875C19.8301 6.78906 19.4648 6.43457 19.0244 6.43457C18.584 6.43457 18.2295 6.78906 18.208 7.21875C18.0576 11.1504 13.9756 13.4922 10.0225 13.7715C9.66797 13.793 9.36719 14.0508 9.29199 14.4053C9.12012 15.1895 9.03418 16.0166 9.03418 16.8438C9.03418 20.5391 10.8066 23.8047 13.4922 25.7168V27.8652L11.5801 28.166C10.0117 28.4131 7.30469 29.2402 5.85449 30.3252C4.30762 30.1855 3.13672 28.8643 3.13672 27.7148C3.13672 26.4902 3.96387 25.416 5.15625 25.1152C5.51074 25.0186 5.75781 24.707 5.75781 24.3311V20.2061C5.75781 19.7656 5.39258 19.4004 4.95215 19.4004C4.51172 19.4004 4.14648 19.7656 4.14648 20.2061V23.7617C2.56738 24.4277 1.51465 25.9746 1.51465 27.7256C1.51465 29.4336 2.81445 31.0234 4.51172 31.668C2.01953 34.751 1.71875 38.9834 1.71875 40.8096V50.7354C1.71875 51.1758 2.08398 51.541 2.52441 51.541H35.9863C37.8125 53.6572 40.5195 55 43.5273 55C49.0166 55 53.4853 50.542 53.4853 45.0635C53.4746 41.1748 51.2402 37.7051 47.749 36.0723ZM39.8105 29.5625C39.8105 29.4658 39.8965 29.3799 39.9932 29.3799H47.0508C47.1474 29.3799 47.2334 29.4658 47.2334 29.5625V31.8076C47.2334 31.9043 47.1474 31.9902 47.0508 31.9902H39.9932C39.8965 31.9902 39.8105 31.9043 39.8105 31.8076V29.5625ZM19.0137 41.2285L17.0908 34.9336H20.9473L19.0137 41.2285ZM13.5244 33.2256L11.9346 31.5928L13.8789 29.9707L17.3486 41.3037L11.8809 36.1367L13.5352 34.332C13.8252 34.0205 13.8145 33.5264 13.5244 33.2256ZM24.1484 29.9707L26.0928 31.5928L24.5029 33.2256C24.2021 33.5371 24.1914 34.0205 24.4814 34.332L26.1357 36.1367L20.668 41.3037L24.1484 29.9707ZM10.6348 16.8545C10.6348 16.3389 10.6777 15.834 10.7529 15.3398C12.9766 15.082 15.0605 14.2871 16.6504 13.0732C17.6816 12.2891 18.4766 11.3652 19.0137 10.3447C19.5508 11.3652 20.335 12.2891 21.3769 13.0732C22.9668 14.2871 25.0508 15.0713 27.2744 15.3398C27.3496 15.834 27.3926 16.3389 27.3926 16.8545C27.3926 21.8389 23.6328 25.8994 19.0244 25.8994C14.3945 25.9102 10.6348 21.8496 10.6348 16.8545ZM19.0137 27.5215C20.3994 27.5215 21.7207 27.2207 22.9238 26.6729V28.4561L21.4307 33.333H16.5859L15.0928 28.4561V26.6729C16.3066 27.2207 17.6279 27.5215 19.0137 27.5215ZM3.34082 40.8096C3.34082 38.9727 3.66309 34.418 6.66016 31.7647C7.57324 30.959 9.83984 30.1426 11.5371 29.8311L10.2373 30.916C10.0654 31.0557 9.95801 31.2705 9.94726 31.4961C9.93652 31.7217 10.0225 31.9365 10.1728 32.0977L11.8379 33.8057L10.1621 35.6318C9.86133 35.9541 9.88281 36.459 10.2051 36.7598L18.2187 44.333V49.9297H9.1416L8.91601 48.3936C8.70117 46.9541 8.92676 44.2363 10.1084 42.6895C10.377 42.335 10.3125 41.8301 9.95801 41.5615C9.60351 41.293 9.09863 41.3574 8.83008 41.7119C7.26172 43.7529 7.06836 46.9648 7.32617 48.6406L7.51953 49.9297H3.34082V40.8096ZM30.5185 49.9297L30.7119 48.6406C30.9697 46.9756 30.7764 43.7529 29.208 41.7119C28.9394 41.3574 28.4346 41.293 28.0801 41.5615C27.7256 41.8301 27.6611 42.335 27.9297 42.6895C29.1113 44.2256 29.3369 46.9434 29.1221 48.3936L28.8857 49.9297H19.8301V44.333L27.8437 36.7598C28.166 36.459 28.1875 35.9541 27.8867 35.6318L26.2109 33.8057L27.876 32.0977C28.0371 31.9365 28.1123 31.7217 28.1016 31.4961C28.0908 31.2705 27.9834 31.0664 27.8115 30.916L26.5117 29.8311C28.209 30.1533 30.4756 30.9697 31.3779 31.7647C34.2353 34.2891 34.6543 38.543 34.6973 40.4766C33.9775 41.8623 33.5801 43.4199 33.5801 45.0635C33.5801 46.8252 34.042 48.4902 34.8584 49.9297H30.5185ZM43.5273 53.3887C38.9297 53.3887 35.1914 49.6504 35.1914 45.0635C35.1914 41.6475 37.2432 38.6182 40.4121 37.3398C40.7129 37.2217 40.917 36.9209 40.917 36.5879V33.6016H46.1377V36.5879C46.1377 36.9209 46.3418 37.2109 46.6426 37.3398C49.8115 38.6182 51.8633 41.6475 51.8633 45.0635C51.8633 49.6504 48.125 53.3887 43.5273 53.3887Z" fill="#00817C"/>
<path d="M46.0195 24.5566C47.6201 24.5566 48.9092 23.2568 48.9092 21.667C48.9092 20.0771 47.6094 18.7773 46.0195 18.7773C44.4297 18.7773 43.1299 20.0771 43.1299 21.667C43.1299 23.2568 44.4189 24.5566 46.0195 24.5566ZM46.0195 20.3887C46.7285 20.3887 47.2979 20.958 47.2979 21.667C47.2979 22.376 46.7285 22.9453 46.0195 22.9453C45.3105 22.9453 44.7412 22.376 44.7412 21.667C44.7305 20.9687 45.3105 20.3887 46.0195 20.3887Z" fill="#00817C"/>
<path d="M40.9814 16.2852C42.582 16.2852 43.8711 14.9854 43.8711 13.3955C43.8711 11.8057 42.5713 10.5059 40.9814 10.5059C39.3916 10.5059 38.0918 11.8057 38.0918 13.3955C38.0918 14.9854 39.3916 16.2852 40.9814 16.2852ZM40.9814 12.1172C41.6904 12.1172 42.2598 12.6865 42.2598 13.3955C42.2598 14.0937 41.6904 14.6738 40.9814 14.6738C40.2725 14.6738 39.7031 14.1045 39.7031 13.3955C39.7031 12.6865 40.2832 12.1172 40.9814 12.1172Z" fill="#00817C"/>
<path d="M46.4062 44.2578H44.333V42.1953C44.333 41.7549 43.9678 41.3896 43.5273 41.3896C43.0869 41.3896 42.7217 41.7549 42.7217 42.1953V44.2578H40.6484C40.208 44.2578 39.8428 44.623 39.8428 45.0635C39.8428 45.5039 40.208 45.8691 40.6484 45.8691H42.7217V47.9424C42.7217 48.3828 43.0869 48.748 43.5273 48.748C43.9678 48.748 44.333 48.3828 44.333 47.9424V45.8691H46.4062C46.8467 45.8691 47.2119 45.5039 47.2119 45.0635C47.2119 44.623 46.8574 44.2578 46.4062 44.2578Z" fill="#00817C"/>
</svg>

<svg width="55" height="55" viewBox="0 0 55 55" fill="none" xmlns="http://www.w3.org/2000/svg"><path d="M4.963 17.306a.805.805 0 00.806-.806v-1.676c0-7.283 5.94-13.213 13.245-13.213 7.304 0 13.245 5.93 13.245 13.213v1.665c0 .44.365.806.805.806.44 0 .806-.365.806-.806v-1.665C33.87 6.65 27.21 0 19.014 0 10.817 0 4.157 6.65 4.157 14.824v1.665c0 .451.355.817.806.817z" fill="#00817C"/><path d="M47.749 36.072v-2.6a1.803 1.803 0 001.106-1.654v-2.245c0-.988-.805-1.794-1.793-1.794h-7.058c-.988 0-1.794.806-1.794 1.794v2.245c0 .742.451 1.386 1.106 1.655v2.6a10.124 10.124 0 00-3.147 2.309c-.344-2.654-1.257-4.984-2.643-6.703a4.673 4.673 0 001.622-1.01c.87-.817 1.375-1.89 1.375-2.943a4.298 4.298 0 00-2.631-3.964v-3.556a.812.812 0 00-.806-.806.811.811 0 00-.806.806v4.125c0 .365.247.688.602.784a2.697 2.697 0 012.03 2.6c0 1.15-1.17 2.47-2.718 2.61-1.45-1.085-4.157-1.912-5.725-2.159l-1.912-.3v-2.15c2.685-1.911 4.458-5.177 4.458-8.872 0-.827-.086-1.644-.258-2.428a.811.811 0 00-.73-.634c-3.836-.28-8.025-2.449-8.186-6.563a.817.817 0 00-.817-.784.824.824 0 00-.816.784c-.15 3.931-4.232 6.273-8.185 6.552a.799.799 0 00-.731.634 11.456 11.456 0 00-.258 2.439c0 3.695 1.773 6.96 4.458 8.873v2.148l-1.912.301c-1.568.247-4.275 1.074-5.726 2.16-1.546-.14-2.717-1.462-2.717-2.611 0-1.225.827-2.299 2.02-2.6a.806.806 0 00.6-.784v-4.125a.812.812 0 00-.805-.806.812.812 0 00-.806.806v3.556a4.298 4.298 0 00-2.631 3.964c0 1.708 1.3 3.297 2.997 3.942-2.492 3.083-2.793 7.315-2.793 9.142v9.925c0 .44.365.806.805.806h33.462A9.946 9.946 0 0043.527 55c5.49 0 9.958-4.458 9.958-9.937a9.92 9.92 0 00-5.736-8.99zm-7.939-6.51c0-.096.087-.182.183-.182h7.058c.096 0 .182.086.182.183v2.245a.188.188 0 01-.182.182h-7.058a.188.188 0 01-.183-.182v-2.245zM19.014 41.228l-1.923-6.294h3.856l-1.933 6.294zm-5.49-8.002l-1.59-1.633 1.945-1.622 3.47 11.333-5.468-5.167 1.654-1.805a.812.812 0 00-.01-1.106zm10.624-3.255l1.945 1.622-1.59 1.633a.802.802 0 00-.022 1.106l1.655 1.805-5.468 5.167 3.48-11.333zM10.635 16.855c0-.516.043-1.021.118-1.515 2.224-.258 4.307-1.053 5.897-2.267 1.032-.784 1.827-1.708 2.364-2.728.537 1.02 1.321 1.944 2.363 2.728 1.59 1.214 3.674 1.998 5.897 2.267.076.494.119.999.119 1.515 0 4.984-3.76 9.044-8.369 9.044-4.63.011-8.39-4.05-8.39-9.044zm8.379 10.666a9.4 9.4 0 003.91-.848v1.783l-1.493 4.877h-4.845l-1.493-4.877v-1.783a9.488 9.488 0 003.92.849zM3.34 40.81c0-1.837.322-6.392 3.32-9.045.912-.806 3.179-1.622 4.876-1.934l-1.3 1.085a.802.802 0 00-.29.58c-.01.226.076.44.226.602l1.665 1.708-1.676 1.826c-.3.322-.28.827.043 1.128l8.014 7.573v5.597H9.142l-.226-1.536c-.215-1.44.01-4.158 1.192-5.704a.804.804 0 10-1.278-.978c-1.568 2.04-1.762 5.253-1.504 6.929l.194 1.289H3.34v-9.12zm27.177 9.12l.194-1.29c.258-1.664.064-4.887-1.504-6.928a.804.804 0 10-1.278.977c1.181 1.537 1.407 4.254 1.192 5.705l-.236 1.536H19.83v-5.597l8.014-7.573a.798.798 0 00.043-1.128l-1.676-1.826 1.665-1.708a.784.784 0 00.226-.602.822.822 0 00-.29-.58l-1.3-1.085c1.697.322 3.964 1.139 4.866 1.934 2.857 2.524 3.276 6.778 3.32 8.712a9.911 9.911 0 00-1.118 4.587 9.85 9.85 0 001.278 4.866h-4.34zm13.01 3.459c-4.598 0-8.337-3.739-8.337-8.326a8.296 8.296 0 015.221-7.723.81.81 0 00.505-.752v-2.986h5.22v2.986a.82.82 0 00.506.752 8.296 8.296 0 015.22 7.723c0 4.587-3.738 8.326-8.336 8.326zm2.493-28.832c1.6 0 2.89-1.3 2.89-2.89s-1.3-2.89-2.89-2.89-2.89 1.3-2.89 2.89a2.89 2.89 0 002.89 2.89zm0-4.168c.708 0 1.278.569 1.278 1.278 0 .709-.57 1.278-1.279 1.278s-1.278-.569-1.278-1.278a1.274 1.274 0 011.279-1.278zm-5.039-4.104c1.601 0 2.89-1.3 2.89-2.89s-1.3-2.89-2.89-2.89-2.89 1.3-2.89 2.89 1.3 2.89 2.89 2.89zm0-4.168c.71 0 1.279.57 1.279 1.278 0 .699-.57 1.279-1.279 1.279s-1.278-.57-1.278-1.278c0-.71.58-1.279 1.278-1.279z" fill="#00817C"/><path d="M46.406 44.258h-2.073v-2.063a.812.812 0 00-.806-.805.812.812 0 00-.805.805v2.063h-2.074a.811.811 0 00-.805.805c0 .44.365.806.805.806h2.074v2.073c0 .44.365.806.805.806.44 0 .806-.365.806-.806V45.87h2.073c.44 0 .806-.365.806-.806a.805.805 0 00-.806-.805z" fill="#00817C"/></svg>
